X: 1522
T: Murtough Mulloy
T: muir.cearta.c ua mael.muai.d.
R: reel
B: O'Neill's 1850 "Music of Ireland" #1522
O: McFadden
Z: transcribed by John B. Walsh, walsh@math.ubc.ca 8/23/96
Z: Compacted via repeats and multiple endings [JC]
M: C|
L: 1/8
K: Em
|: (B,E)(EF) (GB)AG | FDAD BDAD | GFEF GAB^c |1 dBAF GEEz :|2 d^cdB e2ef |]
|: gfef gbag | fdad bdad | gfef [1 gbag | fe^de feef :|[2 gfe^c | dBAF GEEz |]
